X:1
T: Sir James Baird's Strathspey
C:
R:Strathspey
Q: 128
K:A
M:4/4
L:1/16
|:cB|A2E2 E3C E4 E2cB|A2F2 F3E F4 F3A|E3F A2A2 B3c e3f|ec3 B3A F4 F2cB|
A2E2 EFcC E4 E2cB|A2F2 FAFE F4 F2A2|E3F A2A2 B3c e3f|e2dc c2BA F4 F2cd|
e3f e2c2 e4 e3a|f3g fgag f4 f3a|ec3 B3A A3B c2B2|AF3 F3E E4 E2cd|
e3f e2dc e4 e2ag|fefg fgag f4 f2ag|e2dc c2BA A3B c2A2|Bdef edcB A6:|
